dist/img/svg/twitter.svg

<svg width="19" height="15" viewBox="0 0 19 15" fill="none" xmlns="http://www.w3.org/2000/svg">
<path opacity="0.3" d="M18.3981 1.9848C17.7231 2.27044 17.0072 2.45797 16.2741 2.54115C17.0365 2.10328 17.623 1.4113 17.899 0.58557C17.1731 0.997255 16.3789 1.2873 15.5508 1.44318C14.8519 0.729783 13.8744 0.325701 12.8519 0.327398C10.8105 0.327398 9.15361 1.9094 9.15361 3.86092C9.15361 4.13821 9.18627 4.40848 9.25021 4.66654C6.17639 4.51893 3.45216 3.11267 1.62787 0.974312C1.30934 1.4956 1.12764 2.10328 1.12764 2.75107C1.12764 3.97654 1.78024 5.05836 2.77231 5.69219C2.18494 5.67499 1.61046 5.5234 1.09706 5.25015V5.29521C1.09706 7.00691 2.37189 8.43526 4.06278 8.76059C3.5182 8.90151 2.94722 8.92218 2.39305 8.82104C2.86384 10.2252 4.22998 11.2467 5.8475 11.2764C4.5821 12.2227 2.98781 12.7887 1.25483 12.7887C0.960153 12.7884 0.66574 12.7719 0.373047 12.7392C2.00943 13.7416 3.95365 14.3274 6.04185 14.3274C12.8438 14.3274 16.5627 8.94149 16.5627 4.27087C16.5627 4.1181 16.5627 3.96533 16.5513 3.81366C17.2749 3.31326 17.8998 2.69403 18.3969 1.9848H18.3981Z" fill="white"/>
</svg>

<svg width="19" height="15" fill="none" xmlns="http://www.w3.org/2000/svg"><path opacity=".3" d="M18.398 1.985a7.67 7.67 0 01-2.124.556A3.581 3.581 0 0017.9.586a7.617 7.617 0 01-2.348.857 3.771 3.771 0 00-2.7-1.116c-2.04 0-3.697 1.582-3.697 3.534 0 .277.032.547.096.806C6.176 4.519 3.452 3.113 1.628.974a3.395 3.395 0 00-.5 1.777c0 1.226.652 2.307 1.644 2.941a3.805 3.805 0 01-1.675-.442v.045c0 1.712 1.275 3.14 2.966 3.466a3.887 3.887 0 01-1.67.06c.47 1.404 1.837 2.426 3.455 2.455a7.65 7.65 0 01-4.593 1.513c-.295 0-.59-.017-.882-.05a10.826 10.826 0 005.669 1.588c6.802 0 10.52-5.386 10.52-10.056 0-.153 0-.306-.01-.457a7.37 7.37 0 001.845-1.83h.001z" fill="#fff"/></svg>
